packages/core/src/svgs/swth.svg

<svg width="24" height="24" viewBox="0 0 24 24" fill="none" xmlns="http://www.w3.org/2000/svg">
<g clip-path="url(#clip0_31_19543)">
<path d="M0 0H24V24H0V0Z" fill="#053C50"/>
<path d="M6.85725 13.2856H5.57153C6.25725 14.1428 7.14439 14.4985 7.5001 14.5714L6.85725 13.2856Z" fill="#0D4947" fill-opacity="0.53"/>
<path d="M7.32847 14.6143C7.91561 14.8929 8.61418 15.0686 9.42847 15.0001C11.9999 14.7858 13.7142 12.6429 13.7142 12.0001C14.4856 12.1286 16.2213 12.1286 17.5628 11.2586C17.5147 10.4059 17.2713 9.57563 16.8513 8.83198C16.4313 8.08832 15.8459 7.45118 15.1404 6.9698C14.4349 6.48841 13.6282 6.17566 12.7826 6.05571C11.937 5.93576 11.0751 6.01183 10.2636 6.27803C9.45208 6.54423 8.71261 6.99345 8.10235 7.59096C7.49209 8.18847 7.02736 8.91829 6.74409 9.72401C6.46082 10.5297 6.36657 11.3898 6.46864 12.2378C6.57071 13.0857 6.86637 13.8988 7.33275 14.6143H7.32847Z" fill="url(#paint0_linear_31_19543)"/>
<path d="M17.5371 10.8643C16.1828 11.4214 14.1 11.5714 13.08 11.5714C12.2309 13.0612 10.9483 14.257 9.40283 15H9.43712C12.0085 14.7857 13.7228 12.6428 13.7228 12C14.4943 12.1285 16.23 12.1285 17.5714 11.2585C17.5646 11.1268 17.5532 10.9952 17.5371 10.8643Z" fill="url(#paint1_linear_31_19543)"/>
<path d="M11.8586 18.0002C15.7244 18.0002 18.8572 15.0131 18.8572 11.3316V11.1431C17.6144 12.2359 16.2129 12.8231 14.3572 12.6431C14.0701 13.7574 12.8572 15.8574 10.2901 15.8574C8.0915 15.8574 6.17579 14.3916 5.14722 13.2216C6.00007 15.9859 8.67865 18.0002 11.8544 18.0002H11.8586Z" fill="url(#paint2_linear_31_19543)"/>
</g>
<defs>
<linearGradient id="paint0_linear_31_19543" x1="15.2142" y1="6.85719" x2="7.28561" y2="13.9286" gradientUnits="userSpaceOnUse">
<stop stop-color="#D1FAFE"/>
<stop offset="0.12" stop-color="#E9FDFE"/>
<stop offset="0.28" stop-color="#A6EAED"/>
<stop offset="0.43" stop-color="#77D4D7"/>
<stop offset="0.65" stop-color="#5DC8C8"/>
<stop offset="0.84" stop-color="#439CBA"/>
<stop offset="1" stop-color="#3B7DB2"/>
</linearGradient>
<linearGradient id="paint1_linear_31_19543" x1="17.3571" y1="10.9285" x2="9.21426" y2="15" gradientUnits="userSpaceOnUse">
<stop stop-color="#55A6AD"/>
<stop offset="0.16" stop-color="#9CB6BA"/>
<stop offset="0.57" stop-color="#4092A0"/>
<stop offset="1" stop-color="#35729F"/>
</linearGradient>
<linearGradient id="paint2_linear_31_19543" x1="18.4929" y1="11.5588" x2="7.50865" y2="16.5345" gradientUnits="userSpaceOnUse">
<stop stop-color="#8CF2FC"/>
<stop offset="0.39" stop-color="#A6F3FB"/>
<stop offset="0.86" stop-color="#46A7BA"/>
<stop offset="1" stop-color="#3B7CB2"/>
</linearGradient>
<clipPath id="clip0_31_19543">
<rect width="24" height="24" fill="white"/>
</clipPath>
</defs>
</svg>

<svg xmlns="http://www.w3.org/2000/svg" width="24" height="24" fill="none" viewBox="0 0 24 24"><g clip-path="url(#a)"><path fill="#053C50" d="M0 0h24v24H0z"/><path fill="#0D4947" fill-opacity=".53" d="M6.857 13.286H5.572c.685.857 1.572 1.213 1.928 1.285z"/><path fill="url(#b)" d="M7.328 14.614a4.03 4.03 0 0 0 2.1.386c2.572-.214 4.286-2.357 4.286-3 .772.129 2.507.129 3.849-.741a5.573 5.573 0 1 0-10.23 3.355z"/><path fill="url(#c)" d="M17.537 10.864c-1.354.557-3.437.707-4.457.707A8.44 8.44 0 0 1 9.403 15h.034c2.572-.214 4.286-2.357 4.286-3 .771.129 2.507.129 3.848-.742a6 6 0 0 0-.034-.394"/><path fill="url(#d)" d="M11.859 18c3.865 0 6.998-2.987 6.998-6.668v-.189c-1.243 1.093-2.644 1.68-4.5 1.5-.287 1.114-1.5 3.214-4.067 3.214-2.198 0-4.114-1.465-5.143-2.635C6 15.986 8.68 18 11.854 18z"/></g><defs><linearGradient id="b" x1="15.214" x2="7.286" y1="6.857" y2="13.929" gradientUnits="userSpaceOnUse"><stop stop-color="#D1FAFE"/><stop offset=".12" stop-color="#E9FDFE"/><stop offset=".28" stop-color="#A6EAED"/><stop offset=".43" stop-color="#77D4D7"/><stop offset=".65" stop-color="#5DC8C8"/><stop offset=".84" stop-color="#439CBA"/><stop offset="1" stop-color="#3B7DB2"/></linearGradient><linearGradient id="c" x1="17.357" x2="9.214" y1="10.928" y2="15" gradientUnits="userSpaceOnUse"><stop stop-color="#55A6AD"/><stop offset=".16" stop-color="#9CB6BA"/><stop offset=".57" stop-color="#4092A0"/><stop offset="1" stop-color="#35729F"/></linearGradient><linearGradient id="d" x1="18.493" x2="7.509" y1="11.559" y2="16.535" gradientUnits="userSpaceOnUse"><stop stop-color="#8CF2FC"/><stop offset=".39" stop-color="#A6F3FB"/><stop offset=".86" stop-color="#46A7BA"/><stop offset="1" stop-color="#3B7CB2"/></linearGradient><clipPath id="a"><path fill="#fff" d="M0 0h24v24H0z"/></clipPath></defs></svg>
